X: 053
T: Miss Scott of Sinton's Strathspey
B: John Pringle "Collection of Reels Strathspeys & Jigs", 1801 p.5#3
Z: 2011 John Chambers <jc:trillian.mit.edu>
R: strathspey
M: C
L: 1/8
K: D
V: 1
B !Segno!|:\
A<F~F>A ~B>cd>B | A<F~F>E ~E>FGB | A<F~F>A ~B>cd>B | A<Fd>F E>FG<B :|
A<d~d>f (f/e/d/c/) {c}~d2 | A<dd>f {f}Te>def | A<dd>f (f/e/d/c/) {c}dA | B<dA>F E>FGA |
A<d~d>f (f/e/d/c/) {AB}d2 | A<dd>f {f}e>def | d<fe>c {c}d>BA<F | G>BAF E>FGB !Segno!y |]
V: 2 clef=bass middle=d
z !Segno!|:\
d2d2 g2G2 | d2d2 [e2A2][e2A2] | d2d2 g2g2 | f2d2 [e2A2][e2A2] :|
D2d2 A2D2 | d2d2 A2A2 | d2d2 A2d2 | g2f2 [e2A2][e2A2] |
d2f2 a2f2 | d2d2 A2A2 | d2a2 g2f2 | a2f2 [e2A2][e2A2] !Segno!y |]

%%sep 2 1 500

